src/assets/filled/Brush3.svg

<?xml version="1.0" encoding="UTF-8"?>
<svg width="24" height="24" viewBox="0 0 24 24" xmlns="http://www.w3.org/2000/svg">
 <path d="m16.19 2h-8.38c-3.64 0-5.81 2.17-5.81 5.81v8.37c0 3.65 2.17 5.82 5.81 5.82h8.37c3.64 0 5.81-2.17 5.81-5.81v-8.38c0.01-3.64-2.16-5.81-5.8-5.81zm-5.7 14.72c-0.34 0.34-0.79 0.57-1.34 0.64l-1.35 0.15c-0.74 0.08-1.37-0.55-1.29-1.3l0.15-1.36c0.13-1.21 1.14-1.98 2.21-2 0.1-0.01 0.22 0 0.33 0.01 0.47 0.06 0.92 0.28 1.3 0.65 0.37 0.37 0.58 0.81 0.64 1.26 0.01 0.11 0.02 0.22 0.02 0.32 0 0.62-0.23 1.19-0.67 1.63zm6.95-9.17c-0.72 1.8-2.37 4.16-3.94 5.7-0.23-1.42-1.36-2.54-2.8-2.74 1.54-1.58 3.92-3.25 5.73-3.98 0.32-0.12 0.64-0.03 0.84 0.17 0.2 0.22 0.3 0.53 0.17 0.85z"/>
</svg>

<svg width="24" height="24" viewBox="0 0 24 24"  xmlns="http://www.w3.org/2000/svg">
<path d="M16.19 2H7.81C4.17 2 2 4.17 2 7.81V16.18C2 19.83 4.17 22 7.81 22H16.18C19.82 22 21.99 19.83 21.99 16.19V7.81C22 4.17 19.83 2 16.19 2ZM10.49 16.72C10.15 17.06 9.7 17.29 9.15 17.36L7.8 17.51C7.06 17.59 6.43 16.96 6.51 16.21L6.66 14.85C6.79 13.64 7.8 12.87 8.87 12.85C8.97 12.84 9.09 12.85 9.2 12.86C9.67 12.92 10.12 13.14 10.5 13.51C10.87 13.88 11.08 14.32 11.14 14.77C11.15 14.88 11.16 14.99 11.16 15.09C11.16 15.71 10.93 16.28 10.49 16.72ZM17.44 7.55C16.72 9.35 15.07 11.71 13.5 13.25C13.27 11.83 12.14 10.71 10.7 10.51C12.24 8.93 14.62 7.26 16.43 6.53C16.75 6.41 17.07 6.5 17.27 6.7C17.47 6.92 17.57 7.23 17.44 7.55Z" />
</svg>
